X: 13
T: No_21_Arapaho_Song_of_the_World_War_(a).krn
N: Derived from No_21_Arapaho_Song_of_the_World_War_(a).krn
%%abc-version 2.0
%%abcx-abcm2ps-target-version 5.9.1 (29 Sep 2008)
%%abc-creator hum2abc beta
%%abcx-conversion-date 2019/03/15 08:27:55
%%humdrum-veritas 1870762928
%%humdrum-veritas-data 277268295
%%linebreak <none>
%%barnumbers 0
L: 1/8
M: 2/4
%%staves {1 2}
V: 1 clef=bass
V: 2 clef=bass
K: E
[V:1] [K:clef=bass][M:2/4]E/E3/ E3/E/ [I:setbarnb 2]| 
[V:2] [K:clef=bass][M:2/4]z4 | 
[V:1] (3EB,B, B,3/G,/ | 
[V:2] z4 | 
[V:1] E/E3/ E3/E/ | 
[V:2] z4 | 
[V:1] (3EB,B, B,B,/ z/ | 
[V:2] z4 | 
[V:1] B,/A,3/ A,3/A,/ | 
[V:2] z4 | 
[V:1] A,/G,3/ G,3/G,/ | 
[V:2] z4 | 
[V:1] E,/E,3/ E,E,/ z/ | 
[V:2] z4 | 
[V:1] G,/G,3/ G,3/G,/ | 
[V:2] z4 | 
[V:1] E,/E,3/ E,3/B,,/ | 
[V:2] z4 | 
[V:1] E,E, E,3/E,/ | 
[V:2] z4 | 
[V:1] [M:5/8]E,E,/E,/E,E,/ z3/ | 
[V:2] [M:5/8](3:2:1z15/ | 
[V:1] [M:3/4]E,B, B,/B,3/ B,3/B,/ | 
[V:2] [M:3/4]z6 | 
[V:1] [M:2/4]A,/A,3/ A,3/B,/ | 
[V:2] [M:2/4]z4 | 
[V:1] G,/G,3/ G,3/E,/ | 
[V:2] z4 | 
[V:1] E,/E,3/ E, z/ B,/ | 
[V:2] z4 | 
[V:1] G,/G,3/ G,3/E,/ | 
[V:2] z4 | 
[V:1] [M:3/4]E,/E,3/ B,, z/ E,/ E,/E,/E, | 
[V:2] [M:3/4]z6 | 
[V:1] E,/E,3/ (E,/B,,)E,/ (E,/B,,3/) :|]  
[V:2] z6 :|]  



